src/assets/icons/fa/share-alt.svg

<?xml version="1.0" encoding="utf-8"?>
<svg width="1792" height="1792" viewBox="0 0 1792 1792" xmlns="http://www.w3.org/2000/svg"><path d="M1344 1024q133 0 226.5 93.5t93.5 226.5-93.5 226.5-226.5 93.5-226.5-93.5-93.5-226.5q0-12 2-34l-360-180q-92 86-218 86-133 0-226.5-93.5t-93.5-226.5 93.5-226.5 226.5-93.5q126 0 218 86l360-180q-2-22-2-34 0-133 93.5-226.5t226.5-93.5 226.5 93.5 93.5 226.5-93.5 226.5-226.5 93.5q-126 0-218-86l-360 180q2 22 2 34t-2 34l360 180q92-86 218-86z"/></svg>

<svg width="1792" height="1792" xmlns="http://www.w3.org/2000/svg"><path d="M1344 1024q133 0 226.5 93.5T1664 1344t-93.5 226.5T1344 1664t-226.5-93.5T1024 1344q0-12 2-34l-360-180q-92 86-218 86-133 0-226.5-93.5T128 896t93.5-226.5T448 576q126 0 218 86l360-180q-2-22-2-34 0-133 93.5-226.5T1344 128t226.5 93.5T1664 448t-93.5 226.5T1344 768q-126 0-218-86L766 862q2 22 2 34t-2 34l360 180q92-86 218-86z"/></svg>
